X:1
T:Grosmont, 77.77
T:Grosmont, 77.77
T:Samuel Sebastian Wesley, 1864
T:Public Domain Courtesy of the Cyber Hymnal™
C:Samuel Sebastian Wesley, 1864
Z:Public Domain
Z:Courtesy of the Cyber Hymnal™
%%score ( 1 2 ) ( 3 4 )
L:1/8
Q:1/4=110
M:4/4
K:F
V:1 treble 
V:2 treble 
V:3 bass 
V:4 bass 
V:1
 [FA]2 [DF]2 D2 [^CE]2 | [DF]2 [DG]2 [EA]4 | [FA]2 [Ed]2 [Fc]2 [FB]2 | [FA]2 [EG]2 F4 | %4
 [Fd]2 [Be]2 [Af]2 e2 | [Fd]2 (cB) [CA]4 | [DF]2 [EG]2 [FA]2 [DG]2 | [DF]2 [^CE]2 D4 |] %8
V:2
 x4 D2 x2 | x8 | x8 | x4 F4 | x6 (GE) | x2 G2 x4 | x8 | x4 D4 |] %8
V:3
 [D,A,]2 [F,A,]2 [G,B,]2 [E,A,]2 | [D,A,]2 [B,,D]2 [A,,^C]4 | [D,A,]2 [G,,B,]2 [A,,C]2 [B,,D]2 | %3
 [C,C]2 (CB,) [F,A,]4 | B,2 [G,C]2 [F,C]2 [C,C]2 | (B,A,) [E,G,]2 [F,A,]4 | %6
 [B,D]2 [G,C]2 [F,C]2 [G,B,]2 | A,2 (A,G,) [D,F,]4 |] %8
V:4
 x8 | x8 | x8 | x2 C,2 x4 | B,2 x6 | D,2 x6 | x8 | A,2 A,,2 x4 |] %8

